static/img/platform/security/internet.svg

<svg xmlns="http://www.w3.org/2000/svg" xml:space="preserve" style="fill-rule:evenodd;clip-rule:evenodd;stroke-linejoin:round;stroke-miterlimit:2" viewBox="0 0 32 32"><path d="M32 16c0-8.831-7.169-16-16-16S0 7.169 0 16s7.169 16 16 16 16-7.169 16-16" style="fill:#fbed53;fill-opacity:.1"/><path d="M15.99 6C10.47 6 6 10.48 6 16s4.47 10 9.99 10C21.52 26 26 21.52 26 16S21.52 6 15.99 6m6.93 6h-2.95a15.7 15.7 0 0 0-1.38-3.56A8.03 8.03 0 0 1 22.92 12M16 8.04c.83 1.2 1.48 2.53 1.91 3.96h-3.82c.43-1.43 1.08-2.76 1.91-3.96M8.26 18C8.1 17.36 8 16.69 8 16s.1-1.36.26-2h3.38c-.08.66-.14 1.32-.14 2s.06 1.34.14 2zm.82 2h2.95c.32 1.25.78 2.45 1.38 3.56A8 8 0 0 1 9.08 20m2.95-8H9.08a8 8 0 0 1 4.33-3.56A15.7 15.7 0 0 0 12.03 12M16 23.96c-.83-1.2-1.48-2.53-1.91-3.96h3.82c-.43 1.43-1.08 2.76-1.91 3.96M18.34 18h-4.68c-.09-.66-.16-1.32-.16-2s.07-1.35.16-2h4.68c.09.65.16 1.32.16 2s-.07 1.34-.16 2m.25 5.56c.6-1.11 1.06-2.31 1.38-3.56h2.95a8.03 8.03 0 0 1-4.33 3.56M20.36 18c.08-.66.14-1.32.14-2s-.06-1.34-.14-2h3.38c.16.64.26 1.31.26 2s-.1 1.36-.26 2z" style="fill:#fbd153;fill-rule:nonzero"/></svg>

<?xml version="1.0" encoding="UTF-8" standalone="no"?>
<!DOCTYPE svg PUBLIC "-//W3C//DTD SVG 1.1//EN" "http://www.w3.org/Graphics/SVG/1.1/DTD/svg11.dtd">
<svg width="100%" height="100%" viewBox="0 0 32 32" version="1.1" xmlns="http://www.w3.org/2000/svg" xmlns:xlink="http://www.w3.org/1999/xlink" xml:space="preserve" xmlns:serif="http://www.serif.com/" style="fill-rule:evenodd;clip-rule:evenodd;stroke-linejoin:round;stroke-miterlimit:2;">
    <path d="M32,16C32,7.169 24.831,0 16,0C7.169,0 0,7.169 0,16C0,24.831 7.169,32 16,32C24.831,32 32,24.831 32,16Z" style="fill:rgb(251,237,83);fill-opacity:0.1;"/>
    <path d="M15.99,6C10.47,6 6,10.48 6,16C6,21.52 10.47,26 15.99,26C21.52,26 26,21.52 26,16C26,10.48 21.52,6 15.99,6ZM22.92,12L19.97,12C19.65,10.75 19.19,9.55 18.59,8.44C20.43,9.07 21.96,10.35 22.92,12ZM16,8.04C16.83,9.24 17.48,10.57 17.91,12L14.09,12C14.52,10.57 15.17,9.24 16,8.04ZM8.26,18C8.1,17.36 8,16.69 8,16C8,15.31 8.1,14.64 8.26,14L11.64,14C11.56,14.66 11.5,15.32 11.5,16C11.5,16.68 11.56,17.34 11.64,18L8.26,18ZM9.08,20L12.03,20C12.35,21.25 12.81,22.45 13.41,23.56C11.57,22.93 10.04,21.66 9.08,20ZM12.03,12L9.08,12C10.04,10.34 11.57,9.07 13.41,8.44C12.81,9.55 12.35,10.75 12.03,12ZM16,23.96C15.17,22.76 14.52,21.43 14.09,20L17.91,20C17.48,21.43 16.83,22.76 16,23.96ZM18.34,18L13.66,18C13.57,17.34 13.5,16.68 13.5,16C13.5,15.32 13.57,14.65 13.66,14L18.34,14C18.43,14.65 18.5,15.32 18.5,16C18.5,16.68 18.43,17.34 18.34,18ZM18.59,23.56C19.19,22.45 19.65,21.25 19.97,20L22.92,20C21.96,21.65 20.43,22.93 18.59,23.56ZM20.36,18C20.44,17.34 20.5,16.68 20.5,16C20.5,15.32 20.44,14.66 20.36,14L23.74,14C23.9,14.64 24,15.31 24,16C24,16.69 23.9,17.36 23.74,18L20.36,18Z" style="fill:rgb(251,209,83);fill-rule:nonzero;"/>
</svg>
